X:63
%
T:The Cliffs of Moher
C:Traditional
L:1/8
M:6/8
% Q:1/4=70
K:G treble
%
|: d | gfg agf | dgg fdc | AGG (A/G/FE) | DGG AGG | 
gfg agf | dgg fdc | AGG (A/G/FE)  | DGG G2 :|
|: A | ded cAA | ded cAG | (G/F/AB) cAG | (F/G/A).B Tc2 A |
ded cAA | ded cAG | (F/G/A).B cAF | AGG G2 :|

